X: 196
T: the Girl of the Big House   #2
R: air, jig
%S: s:2 b:14(6+4+4)
B: O'Neill's 1850 #196
O: Cronin
Z: 1997 henrik.norbeck@mailbox.swipnet.se
N: Compacted via repeats and multiple endings [JC]
Q: "Moderate"
M: 6/8
L: 1/8
K: D
|: ({G}F2D) ({A}G2E) | AGE .E.D.D |[1 ({G}F2D) ({A}G2E) | (AGE) d2z :|[2 (D=cA) GFE | ({G}FD).D ({F}ED).D :|
|: ABA AGF | GAG GFG | ABA cAG | (Ad).d d2e ||
|| fed cAG | FGF GFE | dcA GFE | ({G}FD).D ({F}ED).D :|
